X:1
T:Title
%%score { ( 1 3 ) | ( 2 4 ) }
L:1/8
M:3/4
K:Ab
V:1 treble nm="Grand Piano"
V:3 treble 
V:2 bass 
V:4 bass 
V:1
 z2 z2[Q:1/4=100] [CE]2 | [DF][CE] [A,C]3 [CE] | [EA]B c2 [Fd]2 | c3 c AB |[M:2/4] [CEA]4 | %5
[M:1/4] [CE]2 |[M:3/4] [DF][CE] [A,C]3 [CE] | [EA]B c2 [Fd]2 | c3 c AB |[M:2/4] [CEA]4 | %10
[M:1/4] [A,EA]2 |[M:3/4] B3 B cc | dc B2 B2 | c3 [Ac] =d[Fd] |[M:2/4] [Ge]4 |[M:1/4] E2 | %16
[M:3/4] d4 z2 | B4 E2 | c4 z2 |[M:2/4] [CA]4 |[M:1/4] [CE]2 |[M:3/4] [A,DF]3 [A,FA] [A,EG][A,DF] | %22
 [A,CE][A,CA] [Ec]2 [Fd]2 | c3 c AB |[M:2/4] [CEA]4 |] %25
V:2
 z2 z2 [A,,A,]2 | [A,,A,][A,,A,] [A,,E,]3 [A,,A,] | [C,A,][E,G,E] [A,E]2 [D,A,]2 | %3
 [E,A,E]3 [E,A,E] [E,CE][E,DE] |[M:2/4] A,,4 |[M:1/4] [A,,A,]2 | %6
[M:3/4] [A,,A,][A,,A,] [A,,E,]3 [A,,A,] | [C,A,][E,G,E] [A,E]2 [D,A,]2 | %8
 [E,A,E]3 [E,A,E] [E,CE][E,DE] |[M:2/4] A,,4 |[M:1/4] C,2 |[M:3/4] [E,G,E]3 [E,G,E] [A,E][A,E] | %12
 [G,B,E][A,E] [E,G,E]2 [E,G,E]2 | [A,E]3 [F,C] [B,A][B,,B,] |[M:2/4] [E,B,]4 |[M:1/4] z2 | %16
[M:3/4] E4 z2 | [E,G,E]4 z2 | E3 [A,E] [E,G,D][E,G,D] |[M:2/4] [A,,A,]4 |[M:1/4] [A,,A,]2 | %21
[M:3/4] D,3 D, D,D, | A,,A,, A,2 [D,A,]2 | [E,A,E]3 [E,A,E] [E,CE][E,DE] |[M:2/4] A,,4 |] %25
V:3
 x6 | x6 | x6 | x6 |[M:2/4] x4 |[M:1/4] x2 |[M:3/4] x6 | x6 | x6 |[M:2/4] x4 |[M:1/4] x2 | %11
[M:3/4] x6 | x6 | x6 |[M:2/4] x4 |[M:1/4] x2 |[M:3/4] z B, B,d cc | x6 | z A, A,c BB |[M:2/4] x4 | %20
[M:1/4] x2 |[M:3/4] x6 | x6 | x6 |[M:2/4] x4 |] %25
V:4
 x6 | x6 | x6 | x6 |[M:2/4] x4 |[M:1/4] x2 |[M:3/4] x6 | x6 | x6 |[M:2/4] x4 |[M:1/4] x2 | %11
[M:3/4] x6 | x6 | x6 |[M:2/4] x4 |[M:1/4] x2 |[M:3/4] z E, E,[E,B,E] [E,A,E][E,A,E] | x6 | x6 | %19
[M:2/4] x4 |[M:1/4] x2 |[M:3/4] x6 | x6 | x6 |[M:2/4] x4 |] %25

